SVG_Azure_Grouped/Application/API definition.svg

<?xml version="1.0" encoding="UTF-8" standalone="no"?>
<!-- Generated by Microsoft Visio, SVG Export API definition.svg Page-1 -->

<svg
   xmlns:dc="http://purl.org/dc/elements/1.1/"
   xmlns:cc="http://creativecommons.org/ns#"
   xmlns:rdf="http://www.w3.org/1999/02/22-rdf-syntax-ns#"
   xmlns:svg="http://www.w3.org/2000/svg"
   xmlns="http://www.w3.org/2000/svg"
   xmlns:sodipodi="http://sodipodi.sourceforge.net/DTD/sodipodi-0.dtd"
   xmlns:inkscape="http://www.inkscape.org/namespaces/inkscape"
   width="0.62985724in"
   height="0.7874952in"
   viewBox="0 0 45.349858 56.700001"
   xml:space="preserve"
   class="st5"
   version="1.1"
   id="svg57"
   sodipodi:docname="API definition.svg"
   style="font-size:12px;overflow:visible;color-interpolation-filters:sRGB;fill:none;fill-rule:evenodd;stroke-linecap:square;stroke-miterlimit:3"
   inkscape:version="0.92.5 (2060ec1f9f, 2020-04-08)"><metadata
   id="metadata61"><rdf:RDF><cc:Work
       rdf:about=""><dc:format>image/svg+xml</dc:format><dc:type
         rdf:resource="http://purl.org/dc/dcmitype/StillImage" /></cc:Work></rdf:RDF></metadata><sodipodi:namedview
   pagecolor="#ffffff"
   bordercolor="#666666"
   borderopacity="1"
   objecttolerance="10"
   gridtolerance="10"
   guidetolerance="10"
   inkscape:pageopacity="0"
   inkscape:pageshadow="2"
   inkscape:window-width="640"
   inkscape:window-height="480"
   id="namedview59"
   showgrid="false"
   inkscape:zoom="1.3497314"
   inkscape:cx="30.236079"
   inkscape:cy="37.798033"
   inkscape:window-x="0"
   inkscape:window-y="0"
   inkscape:window-maximized="0"
   inkscape:current-layer="svg57" />
	<style
   type="text/css"
   id="style2">
	<![CDATA[
		.st1 {fill:#32bedd;stroke:none;stroke-linecap:butt;stroke-width:37.2223}
		.st2 {fill:url(#grad0-8);stroke:none;stroke-linecap:butt;stroke-width:37.2223}
		.st3 {fill:url(#grad0-18)}
		.st4 {stroke:none;stroke-linecap:butt;stroke-width:37.2223}
		.st5 {fill:none;fill-rule:evenodd;font-size:12px;overflow:visible;stroke-linecap:square;stroke-miterlimit:3}
	]]>
	</style>

	<defs
   id="Patterns_And_Gradients">
		<linearGradient
   id="grad0-8"
   x1="-1.0783733e-06"
   y1="122.76278"
   x2="6.9745988"
   y2="122.76278"
   gradientTransform="scale(0.98930437,1.0108113)"
   gradientUnits="userSpaceOnUse">
			<stop
   offset="0"
   stop-color="#c69aeb"
   stop-opacity="1"
   id="stop4" />
			<stop
   offset="1"
   stop-color="#6f4bb2"
   stop-opacity="1"
   id="stop6" />
		</linearGradient>
		<linearGradient
   id="grad0-18"
   x1="-1.6748315e-08"
   y1="66.573821"
   x2="50.708431"
   y2="66.573821"
   gradientTransform="scale(0.89432859,1.1181572)"
   gradientUnits="userSpaceOnUse">
			<stop
   offset="0"
   stop-color="#50e6ff"
   stop-opacity="1"
   id="stop9" />
			<stop
   offset="1"
   stop-color="#32bedd"
   stop-opacity="1"
   id="stop11" />
		</linearGradient>
	</defs>
	<g
   id="g55"
   transform="translate(-37.222488,-37.2177)">
		<title
   id="title15">Page-1</title>
		<g
   id="group14974-1"
   transform="translate(37.2223,-37.2223)">
			<title
   id="title17">API definition.14974</title>
			<g
   id="group14975-2">
				<title
   id="title19">g14</title>
				<g
   id="shape14976-3"
   transform="translate(10.0119,-30.6811)">
					<title
   id="title21">path2</title>
					<path
   d="M 9.34,124 H 3.48 A 3.47408,3.54646 0 0 1 0,120.45 v -15.32 h 3.24 v 15.32 a 0.2314,0.23622 -180 0 0 0.2314,0.23622 L 9.33,120.69 Z m 12.83,-18.87 v 15.32 a 0.2314,0.23622 0 0 1 -0.243741,0.23622 L 19.27,120.69 v -0.06 a 8.66977,8.85039 -180 0 0 -8.55,-7.18 1.4165721,1.4460771 -180 0 0 -0.35,2.87 1.67533,1.71024 -180 0 0 0.35,0 5.86212,5.98425 0 0 1 0,11.94 1.4165689,1.4460772 -180 0 0 -0.35,2.87 1.34212,1.37008 -180 0 0 0.35,0 8.65743,8.8378 -180 0 0 8.48,-7.13 h 2.72 a 3.47408,3.54646 -180 0 0 3.48,-3.55 v -15.32 z"
   class="st1"
   id="path23"
   inkscape:connector-curvature="0"
   style="fill:#32bedd;stroke:none;stroke-width:37.22230148;stroke-linecap:butt" />
				</g>
				<g
   id="shape14977-5"
   transform="translate(15.9635,-36.0189)">
					<title
   id="title26">rect4</title>
					<path
   d="m 0,127.66 a 3.40628,3.47725 -180 0 0 3.41,3.48 h 0.08 a 3.40628,3.47725 -180 0 0 3.41,-3.48 v -0.09 A 3.40628,3.47725 -180 0 0 3.49,124.09 H 3.41 A 3.40628,3.47725 -180 0 0 0,127.57 Z"
   class="st2"
   id="path28"
   inkscape:connector-curvature="0"
   style="fill:url(#grad0-8);stroke:none;stroke-width:37.22230148;stroke-linecap:butt" />
				</g>
				<g
   id="shape14978-9"
   transform="translate(10.774,-20.5008)">
					<title
   id="title31">rect6</title>
					<path
   d="m 0,129.66 a 1.45014,1.48035 -180 0 0 1.45,1.48 h 21.17 a 1.45014,1.48035 -180 0 0 1.45,-1.48 v -0.34 a 1.45014,1.48035 -180 0 0 -1.45,-1.48 H 1.45 A 1.45014,1.48035 -180 0 0 0,129.32 Z"
   class="st1"
   id="path33"
   inkscape:connector-curvature="0"
   style="fill:#32bedd;stroke:none;stroke-width:37.22230148;stroke-linecap:butt" />
				</g>
				<g
   id="shape14979-11"
   transform="translate(10.774,-14.5953)">
					<title
   id="title36">rect8</title>
					<path
   d="m 0,129.66 a 1.45014,1.48035 -180 0 0 1.45,1.48 h 21.17 a 1.45014,1.48035 -180 0 0 1.45,-1.48 v -0.34 a 1.45014,1.48035 -180 0 0 -1.45,-1.48 H 1.45 A 1.45014,1.48035 -180 0 0 0,129.32 Z"
   class="st1"
   id="path38"
   inkscape:connector-curvature="0"
   style="fill:#32bedd;stroke:none;stroke-width:37.22230148;stroke-linecap:butt" />
				</g>
				<g
   id="shape14980-13"
   transform="translate(10.774,-8.68661)">
					<title
   id="title41">rect10</title>
					<path
   d="m 0,129.66 a 1.45014,1.48035 -180 0 0 1.45,1.48 h 12.27 a 1.45014,1.48035 -180 0 0 1.45,-1.48 v -0.34 a 1.45014,1.48035 -180 0 0 -1.45,-1.48 H 1.45 A 1.45014,1.48035 -180 0 0 0,129.32 Z"
   class="st1"
   id="path43"
   inkscape:connector-curvature="0"
   style="fill:#32bedd;stroke:none;stroke-width:37.22230148;stroke-linecap:butt" />
				</g>
				<g
   id="shape14981-15">
					<title
   id="title46">path12</title>
					<path
   d="m 42.28,77.59 v 50.4 H 3.09 V 77.59 H 42.27 Z M 43.5,74.44 H 1.85 A 1.8512,1.88976 -180 0 0 0,76.33 v 52.92 a 1.8512,1.88976 -180 0 0 1.85,1.89 H 43.5 a 1.8512,1.88976 -180 0 0 1.85,-1.89 V 76.33 A 1.8512,1.88976 -180 0 0 43.5,74.44 Z"
   class="st3"
   id="path48"
   inkscape:connector-curvature="0"
   style="fill:url(#grad0-18)" />
					<path
   d="m 42.28,77.59 v 50.4 H 3.09 V 77.59 H 42.27 M 43.5,74.44 H 1.85 A 1.8512,1.88976 -180 0 0 0,76.33 v 52.92 a 1.8512,1.88976 -180 0 0 1.85,1.89 H 43.5 a 1.8512,1.88976 -180 0 0 1.85,-1.89 V 76.33 A 1.8512,1.88976 -180 0 0 43.5,74.44"
   class="st4"
   id="path50"
   inkscape:connector-curvature="0"
   style="stroke:none;stroke-width:37.22230148;stroke-linecap:butt" />
				</g>
			</g>
		</g>
	</g>
</svg>

<?xml version="1.0" encoding="UTF-8" standalone="no"?>
<!DOCTYPE svg PUBLIC "-//W3C//DTD SVG 1.1//EN" "http://www.w3.org/Graphics/SVG/1.1/DTD/svg11.dtd">
<!-- Generated by Microsoft Visio, SVG Export API definition.svg Page-1 -->
<svg xmlns="http://www.w3.org/2000/svg" xmlns:xlink="http://www.w3.org/1999/xlink" xmlns:ev="http://www.w3.org/2001/xml-events"
		width="1.66387in" height="1.82135in" viewBox="0 0 119.799 131.138" xml:space="preserve" color-interpolation-filters="sRGB"
		class="st5">
	<style type="text/css">
	<![CDATA[
		.st1 {fill:#32bedd;stroke:none;stroke-linecap:butt;stroke-width:37.2223}
		.st2 {fill:url(#grad0-8);stroke:none;stroke-linecap:butt;stroke-width:37.2223}
		.st3 {fill:url(#grad0-18)}
		.st4 {stroke:none;stroke-linecap:butt;stroke-width:37.2223}
		.st5 {fill:none;fill-rule:evenodd;font-size:12px;overflow:visible;stroke-linecap:square;stroke-miterlimit:3}
	]]>
	</style>

	<defs id="Patterns_And_Gradients">
		<linearGradient id="grad0-8" x1="0" y1="0" x2="1" y2="0" gradientTransform="rotate(90 0.5 0.5)">
			<stop offset="0" stop-color="#c69aeb" stop-opacity="1"/>
			<stop offset="1" stop-color="#6f4bb2" stop-opacity="1"/>
		</linearGradient>
		<linearGradient id="grad0-18" x1="0" y1="0" x2="1" y2="0" gradientTransform="rotate(90 0.5 0.5)">
			<stop offset="0" stop-color="#50e6ff" stop-opacity="1"/>
			<stop offset="1" stop-color="#32bedd" stop-opacity="1"/>
		</linearGradient>
	</defs>
	<g>
		<title>Page-1</title>
		<g id="group14591-1" transform="translate(37.2223,-37.2223)">
			<title>API definition.14591</title>
			<g id="group14592-2">
				<title>g14</title>
				<g id="shape14593-3" transform="translate(10.0119,-30.6811)">
					<title>path2</title>
					<path d="M9.34 124 L3.48 124 A3.47408 3.54646 0 0 1 0 120.45 L0 105.13 L3.24 105.13 L3.24 120.45 a0.2314 0.23622
								 -180 0 0 0.2314 0.23622 L9.33 120.69 L9.34 124 ZM22.17 105.13 L22.17 120.45 a0.2314 0.23622 0 0
								 1 -0.243741 0.23622 L19.27 120.69 L19.27 120.63 A8.66977 8.85039 -180 0 0 10.72 113.45 A1.41633
								 1.44583 -180 0 0 10.37 116.32 A1.67533 1.71024 -180 0 0 10.72 116.32 A5.86212 5.98425 0 0 1 10.72
								 128.26 A1.41617 1.44567 -180 0 0 10.37 131.13 A1.34212 1.37008 -180 0 0 10.72 131.13 A8.65743 8.8378
								 -180 0 0 19.2 124 L21.92 124 A3.47408 3.54646 -180 0 0 25.4 120.45 L25.4 105.13 L22.17 105.13 Z"
							class="st1"/>
				</g>
				<g id="shape14594-5" transform="translate(15.9635,-36.0189)">
					<title>rect4</title>
					<path d="M0 127.66 A3.40628 3.47725 -180 0 0 3.41 131.14 L3.49 131.14 A3.40628 3.47725 -180 0 0 6.9 127.66 L6.9
								 127.57 A3.40628 3.47725 -180 0 0 3.49 124.09 L3.41 124.09 A3.40628 3.47725 -180 0 0 0 127.57 L0
								 127.66 Z" class="st2"/>
				</g>
				<g id="shape14595-9" transform="translate(10.774,-20.5008)">
					<title>rect6</title>
					<path d="M-0 129.66 A1.45014 1.48035 -180 0 0 1.45 131.14 L22.62 131.14 A1.45014 1.48035 -180 0 0 24.07 129.66
								 L24.07 129.32 A1.45014 1.48035 -180 0 0 22.62 127.84 L1.45 127.84 A1.45014 1.48035 -180 0 0 0 129.32
								 L0 129.66 Z" class="st1"/>
				</g>
				<g id="shape14596-11" transform="translate(10.774,-14.5953)">
					<title>rect8</title>
					<path d="M0 129.66 A1.45014 1.48035 -180 0 0 1.45 131.14 L22.62 131.14 A1.45014 1.48035 -180 0 0 24.07 129.66
								 L24.07 129.32 A1.45014 1.48035 -180 0 0 22.62 127.84 L1.45 127.84 A1.45014 1.48035 -180 0 0 0 129.32
								 L0 129.66 Z" class="st1"/>
				</g>
				<g id="shape14597-13" transform="translate(10.774,-8.68661)">
					<title>rect10</title>
					<path d="M0 129.66 A1.45014 1.48035 -180 0 0 1.45 131.14 L13.72 131.14 A1.45014 1.48035 -180 0 0 15.17 129.66
								 L15.17 129.32 A1.45014 1.48035 -180 0 0 13.72 127.84 L1.45 127.84 A1.45014 1.48035 -180 0 0 -0 129.32
								 L0 129.66 Z" class="st1"/>
				</g>
				<g id="shape14598-15">
					<title>path12</title>
					<path d="M42.28 77.59 L42.28 127.99 L3.09 127.99 L3.09 77.59 L42.27 77.59 L42.28 77.59 ZM43.5 74.44 L1.85 74.44
								 A1.8512 1.88976 -180 0 0 -0 76.33 L0 129.25 A1.8512 1.88976 -180 0 0 1.85 131.14 L43.5 131.14 A1.8512
								 1.88976 -180 0 0 45.35 129.25 L45.35 76.33 A1.8512 1.88976 -180 0 0 43.5 74.44 Z" class="st3"/>
					<path d="M42.28 77.59 L42.28 127.99 L3.09 127.99 L3.09 77.59 L42.27 77.59M43.5 74.44 L1.85 74.44 A1.8512 1.88976
								 -180 0 0 -0 76.33 L0 129.25 A1.8512 1.88976 -180 0 0 1.85 131.14 L43.5 131.14 A1.8512 1.88976 -180
								 0 0 45.35 129.25 L45.35 76.33 A1.8512 1.88976 -180 0 0 43.5 74.44" class="st4"/>
				</g>
			</g>
		</g>
	</g>
</svg>
